icons/svg/post/post-sage.svg

<svg xmlns="http://www.w3.org/2000/svg" width="16" height="16" viewBox="0 0 16 16">
	<path fill="#4b4b4b" d="M4 1q-3 0,-3 3v8q0 3,3 3h8q3 0,3 -3v-8q0 -3,-3-3z"/>
	<path fill="#f5f5f5" d="M4 9h8l-4 4.5zM6 3h4v1h-4zM6 5h4v1h-4zM6 7h4v1h-4z"/>
</svg>

<svg xmlns="http://www.w3.org/2000/svg" width="16" height="16" viewBox="0 0 16 16">
	<path fill="#4b4b4b" d="M4 1Q1 1 1 4v8q0 3 3 3h8q3 0 3-3V4q0-3-3-3z"/>
	<path fill="#f5f5f5" d="M4 9h8l-4 4.5zm2-6h4v1H6zm0 2h4v1H6zm0 2h4v1H6z"/>
</svg>
